X:1
T:Mrs Mitchell of Stow
T:Mrs Mitchell of Stow
T:William Marshall
C:William Marshall
%%score { ( 1 2 ) 3 }
L:1/8
M:4/4
K:C
V:1 treble 
V:2 treble 
V:3 bass 
V:1
 e | cGAB c2 ce | cGce fdBG | cGAB cagf | ecdB [Ec]2 ce | cGAB c2 ce | cGce fdBG | cGAB cagf | %8
 ecdB c2 c |] e | geag fedc | Bdde f2 fa | geag fedc | BGAB c2 ce | geag fedc | Bdde fagf | %16
 ecag fedc | BagB c2 c |] %18
V:2
 x | E4 E4 | E4 E4 | x8 | G2 F2 x4 | E4 E4 | E4 E4 | x8 | G2 F2 x3 |] x | x8 | x8 | x8 | x8 | x8 | %15
 x8 | x8 | x7 |] %18
V:3
 z | [C,C]2 [C,C]2 [C,C]2 [C,C]2 | [C,C]2 [C,C]2 [G,,G,]2 [G,,G,]2 | %3
 [C,C]2 [C,C]2 [F,,F,]2 [E,,E,][F,,F,] | [G,,G,]2 [G,,G,]2 [C,,C,]2 [C,,C,]2 | %5
 [C,C]2 [C,C]2 [C,C]2 [C,C]2 | [C,C]2 [C,C]2 [G,,G,]2 [G,,G,]2 | %7
 [C,C]2 [C,C]2 [F,,F,]2 [E,,E,][F,,F,] | [G,,G,]2 [G,,G,]2 [C,,C,]2 [C,,C,] |] z | %10
 [CEG]2 [CEG]2 [CEG]2 [CEG]2 | [G,DF]2 [DFG]2 [B,DG]2 [B,DG]2 | [CEG]2 [CEG]2 [CEG]2 [CEG]2 | %13
 [G,DF]2 [G,DF]2 [CEG]2 [CEG]2 | [CEG]2 [CEG]2 [CEG]2 [CEG]2 | [G,DF]2 [G,DF]2 [A,CF]2 [B,DG]2 | %16
 [CEG]2 [A,CF]2 [A,CF]2 [F,CF]2 | [G,DF]2 [G,DF]2 [CEA]2 [CEA] |] %18

